src/images/mobile-icons/flashlight-off.svg

<svg viewBox="0 0 512 512" xmlns="http://www.w3.org/2000/svg" xmlns:xlink="http://www.w3.org/1999/xlink">
  <title>flashlight-off</title>
  <path d="M105.150553,83.81722 L170.672275,149.338667 L170.672498,149.337667 L234.666275,213.332667 L406.849447,385.516113 C415.180632,393.847298 415.180632,407.354818 406.849447,415.686003 C398.518262,424.017188 385.010742,424.017188 376.679557,415.686003 L306.755275,345.761667 L234.672669,469.333333 L234.672669,277.333333 L192.00598,277.333333 C180.337403,277.333333 170.863831,267.967909 170.675526,256.343292 L170.672669,255.990347 L170.672275,209.678667 L74.980664,113.987109 C66.6494791,105.655924 66.6494791,92.1484049 74.980664,83.81722 C83.3118489,75.4860351 96.8193685,75.4860351 105.150553,83.81722 Z M362.672533,42.6666667 C374.342032,42.6666667 379.628462,51.0394559 374.620486,61.4319871 L374.465574,61.7475239 L298.672669,213.333333 L362.665443,213.333333 C374.327177,213.333333 379.098633,221.417779 373.43368,231.452411 L373.258816,231.757081 L351.216498,269.543667 L170.672498,88.9986667 L170.672669,64.0096533 C170.672669,52.3294535 180.033918,42.8577881 191.653351,42.6695228 L192.006139,42.6666667 L362.672533,42.6666667 Z" fill="#000" stroke="none" stroke-width="1" fill-rule="evenodd"></path>
</svg>

<svg viewBox="0 0 512 512" xmlns="http://www.w3.org/2000/svg" xmlns:xlink="http://www.w3.org/1999/xlink">
  <title>flashlight-off</title>
  <path d="M105.15 83.817l65.522 65.522v-.001l63.994 63.995L406.85 385.516c8.332 8.331 8.332 21.839 0 30.17-8.33 8.331-21.838 8.331-30.17 0l-69.924-69.924-72.082 123.571v-192h-42.667c-11.669 0-21.142-9.365-21.33-20.99l-.003-.353V209.68L74.98 113.987c-8.332-8.331-8.332-21.839 0-30.17 8.33-8.331 21.838-8.331 30.17 0zm257.523-41.15c11.669 0 16.955 8.372 11.947 18.765l-.154.316-75.793 151.585h63.992c11.662 0 16.434 8.085 10.769 18.12l-.175.304-22.043 37.787L170.672 88.999v-24.99c0-11.68 9.362-21.151 20.981-21.34l.353-.002h170.667z" fill="#000" stroke="none" stroke-width="1" fill-rule="evenodd"></path>
</svg>
